app/src/content/assets/svg/salir.svg

<?xml version="1.0" encoding="UTF-8" standalone="no"?>
<svg
   xmlns:dc="http://purl.org/dc/elements/1.1/"
   xmlns:cc="http://creativecommons.org/ns#"
   xmlns:rdf="http://www.w3.org/1999/02/22-rdf-syntax-ns#"
   xmlns:svg="http://www.w3.org/2000/svg"
   xmlns="http://www.w3.org/2000/svg"
   xmlns:sodipodi="http://sodipodi.sourceforge.net/DTD/sodipodi-0.dtd"
   xmlns:inkscape="http://www.inkscape.org/namespaces/inkscape"
   width="76.011"
   height="76.011"
   viewBox="0 0 76.01 76.01"
   id="svg2"
   version="1.1"
   inkscape:version="0.91 r13725"
   sodipodi:docname="salir.svg">
  <metadata
     id="metadata10">
    <rdf:RDF>
      <cc:Work
         rdf:about="">
        <dc:format>image/svg+xml</dc:format>
        <dc:type
           rdf:resource="http://purl.org/dc/dcmitype/StillImage" />
      </cc:Work>
    </rdf:RDF>
  </metadata>
  <defs
     id="defs8" />
  <sodipodi:namedview
     pagecolor="#ffffff"
     bordercolor="#666666"
     borderopacity="1"
     objecttolerance="10"
     gridtolerance="10"
     guidetolerance="10"
     inkscape:pageopacity="0"
     inkscape:pageshadow="2"
     inkscape:window-width="640"
     inkscape:window-height="480"
     id="namedview6"
     showgrid="false"
     inkscape:zoom="3.1048137"
     inkscape:cx="32.369092"
     inkscape:cy="38.005501"
     inkscape:window-x="10"
     inkscape:window-y="156"
     inkscape:window-maximized="0"
     inkscape:current-layer="svg2" />
  <path
     d="m 58.855857,2.8991854 0,14.9830516 -5.618645,0 0,-9.3644074 -43.08189,0 0,59.9415694 43.08189,0 0,-9.366279 5.618645,0 0,14.984923 -54.0082809,0 -0.3127712,-71.1788576 54.3210521,0 z m -39.336128,29.9698476 28.565187,0 -15.453144,-13.112042 18.73256,0 21.540009,18.730687 -21.540009,18.73256 -18.73256,0 15.453144,-13.112043 -28.565187,0 0,-11.239162 z"
     id="path4"
     inkscape:connector-curvature="0" />
</svg>

<svg xmlns="http://www.w3.org/2000/svg" width="76.011" height="76.011" viewBox="0 0 76.01 76.01"><path d="M58.856 2.9v14.982h-5.619V8.518H10.155v59.941h43.082v-9.366h5.619v14.985H4.848L4.535 2.899h54.32zM19.52 32.868h28.565L32.632 19.757h18.732l21.54 18.73-21.54 18.733H32.632l15.453-13.112H19.52V32.87z"/></svg>
